X:79
T:Old French
C:Traditional
M:4/4
L:1/8
Q:1/8=480
K:D
A/B/c|:d2cd BdAF|DFAd f2ed|cdef gecA|dfed cABc|
d2cd BdAF|DFAd f2ed|cdef gecA|1 cdde d2A/B/c:|2 cdde d2cd|
|:efed cdBc|AEAc e2dc|BGBd gfed|cAce aecd|
efed cdBc|AEAc eAdc|BGBd gfed|1 c/d/cA2 A2cd:|2 c/d/cA2 A4|
